X:652
T: "Der Wunsch"
N: Z1333
O: Europa, Mitteleuropa, Schweiz; Elsass
R: Zech -, Schalks - Lied; Wunsch -, Kilt - Lied
M: 2/4
L: 1/16
K: F
C2 | A2F2B2G2 | c2cdc3
B | A2AFB2BG | c4c2
B2 | A2c2cBAG | F2FFF2
F2 | G2G2GFED | C2CCC2
C2 | A3ccBAG | F4F2
A2 | G2A2BGFE | F4F2

